X: 223
T:Oh Dear, What Can The Matter Be
% Nottingham Music Database
S:Trad, via EF
M:6/8
K:G
Bc|"G"d3 d3|"G"dBg dBG|"Am"c3 c3|"D7"cAB cBA|"G"d3 d3|"G"dBg dBG|\
"Am"EAc "D7"BcA|"G"G4||
P:V 1
Bc|dBc dBc|dBg dBG|cAB cAB|cAB cBA|
dBc dBc|dBg dBG|EAc BcA|G4||
P:V 2
Bc|dB/2c/2d/2B/2 gB/2c/2d/2B/2|dB/2c/2d/2B/2 e/2d/2c/2B/2A/2G/2|
cA/2B/2c/2A/2 aA/2B/2c/2A/2|cA/2B/2c/2A/2 a/2g/2f/2e/2d/2^c/2|\
dB/2c/2d/2B/2 gB/2c/2d/2B/2|
dB/2c/2d/2B/2 e/2d/2c/2B/2A/2G/2|EAc BcA|G4||
P:V 3
Bc|d/2c/2B/2c/2d/2B/2 d/2c/2B/2c/2d/2B/2|dBg dBG|\
c/2B/2A/2B/2c/2A/2 c/2B/2A/2B/2c/2A/2|
cAa gfe|d/2c/2B/2c/2d/2B/2 d/2c/2B/2c/2d/2B/2|dBg dBG|EAc BcA|G4||
P:V 4
Bc|dBG DGB|d/2G/2B/2d/2g/2d/2 b/2a/2g/2f/2e/2d/2|ecA EFG|\
F/2D/2F/2A/2d/2A/2 a/2g/2f/2e/2d/2^c/2|
dBG DGB|d/2G/2B/2d/2g/2d/2 b/2a/2g/2f/2e/2d/2|EAc BcA|G4||
P:V 5
Bc|d2b B2g|GBd DGB|A2a A2e|DFA cBc|
d2b B2g|GBd DGB|EAc BcA|G4||
P:V 6
Bc|e/2d/2c/2B/2A/2G/2 e/2d/2c/2B/2A/2G/2|B/2G/2B/2d/2g/2d/2 b/2a/2g/2f/2e/2d/2\
|
f/2e/2d/2c/2B/2A/2 f/2e/2d/2c/2B/2A/2|F/2D/2F/2A/2d/2A/2 a/2g/2f/2e/2d/2^c/2|
e/2d/2c/2B/2A/2G/2 e/2d/2c/2B/2A/2G/2|B/2G/2B/2d/2g/2d/2 b/2a/2g/2f/2e/2d/2|\
EAc BcA|G4||
P:V 7
Bc|d3/2B/2d/2B/2 e3/2B/2e/2B/2|d3/2B/2d/2c/2 BAG|c3/2A/2c/2A/2 a3/2b/2a/2g/2|
f3/2g/2f/2e/2 d3/2e/2d/2^c/2|d3/2B/2d/2B/2 e3/2B/2e/2B/2|d3/2B/2d/2c/2 BAG|\
EAc BcA|G4||<end>
<start>
